outputs/icons/navigation/help_outline_round.svg

<svg xmlns="http://www.w3.org/2000/svg" width="1200" height="1200" fill="none"><g clip-path="url(#a)"><path fill="#000" d="M600 100c-276 0-500 224-500 500s224 500 500 500 500-224 500-500-224-500-500-500m0 900c-220.5 0-400-179.5-400-400s179.5-400 400-400 400 179.5 400 400-179.5 400-400 400m-50-200h100v100H550zm80.5-498c-103-15-194 48.5-221.5 139.5-9 29 13 58.5 43.5 58.5h10c20.5 0 37-14.5 44-33.5 16-44.5 63.5-75 115-64 47.5 10 82.5 56.5 78.5 105-5 67-81 81.5-122.5 144 0 .5-.5.5-.5 1-.5 1-1 1.5-1.5 2.5-4.5 7.5-9 16-12.5 25-.5 1.5-1.5 2.5-2 4-.5 1-.5 2-1 3.5-6 17-10 37.5-10 62.5h100c0-21 5.5-38.5 14-53.5 1-1.5 1.5-3 2.5-4.5 4-7 9-13.5 14-19.5.5-.5 1-1.5 1.5-2 5-6 10.5-11.5 16.5-17 48-45.5 113-82.5 99.5-178-12-87-80.5-160.5-167.5-173.5"/></g><defs><clipPath id="a"><path fill="#fff" d="M0 0h1200v1200H0z"/></clipPath></defs></svg>

<svg width="1200" height="1200" viewBox="0 0 1200 1200" fill="none" xmlns="http://www.w3.org/2000/svg"><g clip-path="url(#clip0_223_1869)"><path d="M600 100C324 100 100 324 100 600C100 876 324 1100 600 1100C876 1100 1100 876 1100 600C1100 324 876 100 600 100ZM600 1000C379.5 1000 200 820.5 200 600C200 379.5 379.5 200 600 200C820.5 200 1000 379.5 1000 600C1000 820.5 820.5 1000 600 1000ZM550 800H650V900H550V800ZM630.5 302C527.5 287 436.5 350.5 409 441.5C400 470.5 422 500 452.5 500H462.5C483 500 499.5 485.5 506.5 466.5C522.5 422 570 391.5 621.5 402.5C669 412.5 704 459 700 507.5C695 574.5 619 589 577.5 651.5C577.5 652 577 652 577 652.5C576.5 653.5 576 654 575.5 655C571 662.5 566.5 671 563 680C562.5 681.5 561.5 682.5 561 684C560.5 685 560.5 686 560 687.5C554 704.5 550 725 550 750H650C650 729 655.5 711.5 664 696.5C665 695 665.5 693.5 666.5 692C670.5 685 675.5 678.5 680.5 672.5C681 672 681.5 671 682 670.5C687 664.5 692.5 659 698.5 653.5C746.5 608 811.5 571 798 475.5C786 388.5 717.5 315 630.5 302Z" fill="#1D1E23"/></g><defs><clipPath id="clip0_223_1869"><path width="24" fill="white" d="M0 0H1200V1200H0V0z"/></clipPath></defs></svg>
